public/NelsonLogoClip.svg

<svg xmlns="http://www.w3.org/2000/svg" xmlns:xlink="http://www.w3.org/1999/xlink" width="608" height="503" viewBox="0 0 608 503">
  <defs>
    <rect id="nelsonlogoclip-a" width="608" height="503" x="0" y="0"/>
  </defs>
  <g fill="none" fill-rule="evenodd">
    <mask id="nelsonlogoclip-b" fill="#fff">
      <use xlink:href="#nelsonlogoclip-a"/>
    </mask>
    <use fill="#D8D8D8" fill-opacity="0" xlink:href="#nelsonlogoclip-a"/>
    <g fill-rule="nonzero" mask="url(#nelsonlogoclip-b)" opacity=".182">
      <g transform="translate(168 -69)">
        <path fill="#748899" d="M333.991309,4.34536249 L395.683355,66.5785668 C401.438882,72.38458 401.438882,81.6379136 395.683355,87.4439268 L303.055356,181.06589 L220.679388,97.7858879 L313.307387,4.34536249 C316.042758,1.56425238 319.765678,4.77484718e-12 323.649348,4.77484718e-12 C327.533019,4.77484718e-12 331.255939,1.56425238 333.991309,4.34536249 Z M158.807482,326.397659 L395.683355,565.532829 C401.438882,571.338842 401.438882,580.592175 395.683355,586.216751 L333.991309,648.631393 C331.255939,651.412503 327.533019,652.976755 323.649348,652.976755 C319.765678,652.976755 316.042758,651.412503 313.307387,648.631393 L4.30757673,336.921058 C1.55065019,334.161693 1.6825652e-11,330.406115 1.6825652e-11,326.488378 C1.6825652e-11,322.57064 1.55065019,318.815063 4.30757673,316.055698 L96.9355758,222.615172 L179.491404,305.713737 L158.807482,326.397659 Z"/>
        <path fill="#12202B" d="M97.115436,471.910865 L179.491404,555.190868 L86.6835448,648.631393 C83.9481743,651.412503 80.2252542,652.976755 76.3415838,652.976755 C72.4579133,652.976755 68.7349933,651.412503 65.9996227,648.631393 L4.30757673,586.216751 C-1.31605716,580.48905 -1.31605716,571.26053 4.30757673,565.532829 L96.9355758,471.729427 L97.115436,471.910865 Z M395.683355,336.921058 L303.055356,430.361583 L220.679388,347.263019 L241.18345,326.397659 L4.30757673,87.4439268 C1.55065019,84.6845618 0,80.9289845 0,77.0112468 C0,73.0935091 1.55065019,69.3379318 4.30757673,66.5785668 L65.9996227,4.34536249 C68.7349933,1.56425238 72.4579133,0 76.3415838,0 C80.2252542,0 83.9481743,1.56425238 86.6835448,4.34536249 L395.683355,316.055698 C401.438882,321.861711 401.438882,331.115044 395.683355,336.921058 Z"/>
      </g>
    </g>
  </g>
</svg>

<svg viewBox="0 0 400 653" xmlns="http://www.w3.org/2000/svg"><g fill-rule="nonzero" fill="none" opacity=".182"><path d="M333.991 4.345l61.692 62.234a14.765 14.765 0 010 20.865l-92.628 93.622-82.376-83.28 92.628-93.44A14.505 14.505 0 01323.65 0c3.884 0 7.607 1.564 10.342 4.345zM158.807 326.398l236.876 239.135c5.756 5.806 5.756 15.06 0 20.684l-61.692 62.414a14.505 14.505 0 01-10.342 4.346 14.505 14.505 0 01-10.342-4.346l-309-311.71A14.762 14.762 0 010 326.488c0-3.917 1.55-7.673 4.308-10.432l92.628-93.44 82.555 83.098-20.684 20.684z" fill="#748899"/><path d="M97.115 471.91l82.376 83.28-92.807 93.441a14.505 14.505 0 01-10.342 4.346A14.505 14.505 0 0166 648.63L4.308 586.217c-5.624-5.728-5.624-14.956 0-20.684l92.628-93.804.18.182zm298.568-134.989l-92.628 93.44-82.376-83.098 20.504-20.865L4.308 87.444A14.762 14.762 0 010 77.01c0-3.917 1.55-7.673 4.308-10.432L66 4.345A14.505 14.505 0 0176.342 0c3.883 0 7.606 1.564 10.342 4.345l309 311.71a14.765 14.765 0 010 20.866z" fill="#12202B"/></g></svg>
